X:992403
T: Brown Haired Maiden Simplified
C:Traditional
H:
B:
O:Kevin Fraser
Z:Kevin Fraser
Q:1/4=90
K:HP
M:2/4
L:1/16
R:March
U: R = ///
U: r = //
U: V = !accent!
V:M gstem=up stem=down name="Melody"
V:H gstem=up stem=down name="Harmony"
V:C gstem=up stem=down name="C-Harmony"
V:S gstem=up stem=down dyn=up stafflines=1 clef=perc middle=G name="Snare" sname="Snare"
V:B gstem=up stem=down clef=none dyn=up name="Bass"
V:T gstem=up stem=down clef=none dyn=up name="Tenor"
I:MIDI=program 110
%%MIDI gracedivider 4
[V:M]|: A2     | {g}d3c {g}B2{e}A2  | {g}d4 {g}A2{g}d2  | {g}f2d2 g2f2   | {g}f2e2 {A}e2g2   | $
w:  A2     | {g}d3 c {g}B2 {e}A2  | {g}d4 {g}A2 {g}d2  | {g}f2 d2 g2 f2   | {g}f2 e2 {A}e2 g2   | $
[V:M]          | {a}f2<a2 {g}f2a2       | {AGAG}A4  {g}d3e   | {g}f4  g2e2 | {g}d4 {g}d2      :| $
w:          | {a}f2< a2 {g}f2 a2       | {AGAG}A4  {g}d3 e   | {g}f4  g2 e2 | {g}d4 {g}d2      :| $
[V:M]|: g2 | f2<a2 f2a2        | {AGAG}A4  {g}d3e   | {g}f2d2 g2f2   | {g}f2e2 {A}e2g2   | $
w: g2 | f2< a2 f2 a2        | {AGAG}A4  {g}d3 e   | {g}f2 d2 g2 f2   | {g}f2 e2 {A}e2 g2   | $
[V:M]          [1 f2<a2 f2a2        | {AGAG}A4  {g}d3e   | {g}f4  {g}g2{a}e2 | {g}d4 {g}d2g2 :|    $
w: f2< a2 f2 a2        | {AGAG}A4  {g}d3 e   | {g}f4  {g}g2 {a}e2 | {g}d4 {g}d2 g2 :|    $
[V:M]          [2 {ag}a3g f2a2       | {AGAG}A4  {g}d3e   | {g}f4  g2{a}e2 | {g}d4 {g}d2       |    
w: {ag}a3 g f2 a2       | {AGAG}A4  {g}d3 e   | {g}f4  g2 {a}e2 | {g}d4 {g}d2       |    



